X: 29997
T: Ode To Whiskey
R: jig
M: 6/8
K: Dmajor
d|dcB A>BG|F2D DEF|G>AB B>cd|e2c A2d|
dcB ABG|FEF DGA|Bde cBc|d3 d3|
f2 d g2 e|f2 d Bcd|efd cdB|A2 F F2 A|
fed gfe|a2 f dcd|Bef ecA|d3 d2||

